packages/core/src/svgs/tokens/mono/ZANO.svg

<svg width="24" height="24" viewBox="0 0 24 24" fill="none" xmlns="http://www.w3.org/2000/svg">
<path d="M13.7498 2H16.0623C16.8624 2 17.5312 2 18.0748 2.04375C18.6432 2.07229 19.2001 2.21468 19.7124 2.4625C20.5014 2.86641 21.1425 3.5096 21.5436 4.30001C21.8061 4.82501 21.9062 5.36877 21.9561 5.94376C21.9998 6.49376 21.9998 7.16877 21.9998 7.96877V10.4064C21.9998 11.2063 21.9998 11.8813 21.9561 12.4313C21.9287 13.001 21.7885 13.5599 21.5436 14.0751C21.143 14.8676 20.5021 15.5129 19.7124 15.9189C19.1937 16.1814 18.6499 16.2813 18.0748 16.3313C17.5312 16.3751 16.8624 16.3751 16.0686 16.3751H9.13725C8.90039 16.3705 8.6699 16.2972 8.47408 16.1637C8.27825 16.0303 8.12556 15.8426 8.03469 15.6239C7.94384 15.405 7.91875 15.1643 7.9625 14.9314C8.00627 14.6985 8.11696 14.4834 8.28106 14.3125L13.906 8.10627L15.6311 9.80625L12.0186 13.875H16.0186C17.4623 13.875 19.3499 14.1126 19.4999 12.2313V6.14376C19.4186 5.16251 18.8936 4.58126 17.8749 4.5H11.9123C10.9249 4.58126 10.2561 5.10001 10.1873 6.08127C10.1561 6.52501 10.1123 7.16877 10.1248 8.03753V9.05628L7.62481 9.08758V8.03753C7.6123 7.22501 7.62481 6.55002 7.6623 5.99377C7.70605 5.41252 7.79981 4.8625 8.06231 4.33126C8.5249 3.52214 9.22242 2.87264 10.0623 2.46874C10.5873 2.19374 11.1374 2.09374 11.7124 2.04375C12.2686 2 12.9435 2 13.7436 2H13.7498Z" fill="white"/>
<path d="M6.12526 19.5H12.1566C13.1315 19.425 13.8003 18.8188 13.8753 17.85V16.375H16.3753V18.0313C16.2897 18.794 16.0129 19.5229 15.5703 20.15C15.1278 20.7772 14.534 21.2824 13.8441 21.6188C13.3628 21.8375 12.8627 21.925 12.3377 21.9625C11.8378 22 11.2253 22 10.5065 22H7.93152C7.13776 22 6.46901 22 5.92526 21.9563C5.35689 21.9277 4.80004 21.7853 4.28775 21.5376C3.49872 21.1336 2.85772 20.4903 2.45649 19.7001C2.21163 19.1847 2.07141 18.626 2.04399 18.0562C2.00024 17.5 2.00024 16.8312 2.00024 16.0374V13.575C2.00024 12.775 2.00024 12.1062 2.04399 11.5562C2.09399 10.9812 2.19398 10.4311 2.45649 9.91241C2.857 9.11995 3.49803 8.47459 4.28775 8.06869C4.8065 7.80618 5.35026 7.70619 5.92526 7.6562C6.46901 7.61245 7.13776 7.62494 7.93152 7.62494H14.8629C15.5254 7.62494 16.069 8.15619 16.069 8.82494C16.069 9.49372 15.5254 10.1249 14.8566 10.1249H7.98151C7.12526 10.1249 6.55651 10.1249 6.11901 10.1625C5.144 10.2437 4.58151 10.7811 4.50025 11.7562V17.8563C4.58151 18.8312 5.144 19.4187 6.12526 19.5Z" fill="white"/>
</svg>

<svg xmlns="http://www.w3.org/2000/svg" width="24" height="24" fill="none" viewBox="0 0 24 24">
    <path fill="#fff" d="M13.75 2h2.312c.8 0 1.47 0 2.013.044a4.25 4.25 0 0 1 1.637.418A4.2 4.2 0 0 1 21.544 4.3c.262.525.362 1.069.412 1.644.044.55.044 1.225.044 2.025v2.437c0 .8 0 1.475-.044 2.025a4.3 4.3 0 0 1-.412 1.644 4.2 4.2 0 0 1-1.832 1.844c-.518.262-1.062.362-1.637.412-.544.044-1.213.044-2.006.044H9.137a1.22 1.22 0 0 1-.856-2.062l5.625-6.207 1.725 1.7-3.612 4.069h4c1.443 0 3.33.238 3.48-1.644V6.144c-.08-.981-.605-1.563-1.624-1.644h-5.963c-.987.081-1.656.6-1.725 1.581a22 22 0 0 0-.062 1.957v1.018l-2.5.032v-1.05c-.013-.813 0-1.488.037-2.044.044-.581.138-1.131.4-1.663a4.6 4.6 0 0 1 2-1.862c.525-.275 1.075-.375 1.65-.425C12.27 2 12.944 2 13.744 2z"/>
    <path fill="#fff" d="M6.125 19.5h6.032c.975-.075 1.643-.681 1.718-1.65v-1.475h2.5v1.656a4.56 4.56 0 0 1-2.53 3.588c-.482.218-.982.306-1.507.343-.5.038-1.113.038-1.831.038H7.932c-.794 0-1.463 0-2.007-.044a4.3 4.3 0 0 1-1.637-.418A4.2 4.2 0 0 1 2.456 19.7a4.3 4.3 0 0 1-.412-1.644C2 17.5 2 16.831 2 16.037v-2.462c0-.8 0-1.469.044-2.019.05-.575.15-1.125.412-1.644A4.2 4.2 0 0 1 4.288 8.07c.518-.263 1.062-.363 1.637-.413.544-.044 1.213-.031 2.007-.031h6.93c.663 0 1.207.531 1.207 1.2s-.544 1.3-1.212 1.3H7.982c-.857 0-1.425 0-1.863.037-.975.082-1.537.62-1.619 1.594v6.1c.082.975.644 1.563 1.625 1.644"/>
</svg>
